X: 4
T: Petronella
Z: ceolachan
S: https://thesession.org/tunes/1083#setting14318
R: reel
M: 4/4
L: 1/8
K: Dmaj
|: AG |F3 A E2 AF | D2 D2 D3 A | d2 cd e2 d2 | c2 B/c/B A2 G/A/G |
F2 F2 E3 F | DE G/F/E D2 FA | d3 c e2 dc | d2 d2 d2 :|
|: dA |F3 d A2 a/g/f | g3 f edcB | A3 e c2 ge | f2 fd AdAF |
D2 fd A3 a | gagf edcB | A2 ec Agec | d3 [Ad] [D2d2] :|
